X: 31975
T: Pedaling Patterns
R: barndance
M: 4/4
K: Edorian
|:BEGE FAdc|BEGB ~e3f|gbag fedc|Bcdf e2 d2|
BEEE FFdc|BEGB ~e3f|g2 ag fedc|1 Bcdf e2 d2:|2 Bcdf ~e3f||
|:g2 Bd ga b2|affe dBAF|EBBA GBef|gbaf ge e2|
gdBd gabg|affe dBAF|EBBA GBef|1 g2 fg ~e3f:|2 g2 fg e2 d2||

